svgs/sharp-regular/building-lock.svg

<svg xmlns="http://www.w3.org/2000/svg" viewBox="0 0 576 512"><!--! Font Awesome Pro 6.4.0 by @fontawesome - https://fontawesome.com License - https://fontawesome.com/license (Commercial License) Copyright 2023 Fonticons, Inc. --><path d="M48 48H336V288h16V272c0-30.5 12.2-58.2 32-78.4V48 0H336 48 0V48 464v48H48 320l0-48H240V352H144V464H48V48zM88 88v80h80V88H88zm208 0H216v80h80V88zM88 216v80h80V216H88zm208 0H216v80h80V216zm168 24c17.7 0 32 14.3 32 32v48H432V272c0-17.7 14.3-32 32-32zm-80 32v48H352V512H576V320H544V272c0-44.2-35.8-80-80-80s-80 35.8-80 80z"/></svg>

<svg xmlns="http://www.w3.org/2000/svg" viewBox="0 0 576 512"><!--! Font Awesome Pro 6.6.0 by @fontawesome - https://fontawesome.com License - https://fontawesome.com/license (Commercial License) Copyright 2024 Fonticons, Inc. --><path d="M48 48l288 0 0 240 16 0 0-16c0-30.5 12.2-58.2 32-78.4L384 48l0-48L336 0 48 0 0 0 0 48 0 464l0 48 48 0 272 0 0-48-80 0 0-112-96 0 0 112-96 0L48 48zM88 88l0 80 80 0 0-80L88 88zm208 0l-80 0 0 80 80 0 0-80zM88 216l0 80 80 0 0-80-80 0zm208 0l-80 0 0 80 80 0 0-80zm168 24c17.7 0 32 14.3 32 32l0 48-64 0 0-48c0-17.7 14.3-32 32-32zm-80 32l0 48-32 0 0 192 224 0 0-192-32 0 0-48c0-44.2-35.8-80-80-80s-80 35.8-80 80z"/></svg>
